icons/face-sad.svg

<svg width="24" height="24" viewBox="0 0 24 24" fill="none" xmlns="http://www.w3.org/2000/svg">
<path fill-rule="evenodd" clip-rule="evenodd" d="M12 4C7.58172 4 4 7.58172 4 12C4 16.4183 7.58172 20 12 20C16.4183 20 20 16.4183 20 12C20 7.58172 16.4183 4 12 4ZM2 12C2 6.47715 6.47715 2 12 2C17.5228 2 22 6.47715 22 12C22 17.5228 17.5228 22 12 22C6.47715 22 2 17.5228 2 12ZM8 10C8 9.44772 8.44772 9 9 9H9.01C9.56228 9 10.01 9.44772 10.01 10C10.01 10.5523 9.56228 11 9.01 11H9C8.44772 11 8 10.5523 8 10ZM14 10C14 9.44772 14.4477 9 15 9H15.01C15.5623 9 16.01 9.44772 16.01 10C16.01 10.5523 15.5623 11 15.01 11H15C14.4477 11 14 10.5523 14 10ZM12 15.1995C11.6674 15.1995 11.3381 15.2659 11.0315 15.3947C10.7249 15.5235 10.4471 15.7123 10.2143 15.9499C9.82777 16.3443 9.19464 16.3508 8.80015 15.9643C8.40566 15.5778 8.3992 14.9446 8.78571 14.5501C9.2047 14.1225 9.70481 13.7828 10.2567 13.5509C10.8087 13.3189 11.4013 13.1995 12 13.1995C12.5987 13.1995 13.1913 13.3189 13.7433 13.5509C14.2952 13.7828 14.7953 14.1225 15.2143 14.5501C15.6008 14.9446 15.5943 15.5778 15.1999 15.9643C14.8054 16.3508 14.1722 16.3443 13.7857 15.9499C13.5529 15.7123 13.2751 15.5235 12.9685 15.3947C12.6619 15.2659 12.3326 15.1995 12 15.1995Z" fill="black"/>
</svg>

<svg
  width="24"
  height="24"
  viewBox="0 0 24 24"
  xmlns="http://www.w3.org/2000/svg"
>
  <path
    fill-rule="evenodd"
    clip-rule="evenodd"
    d="M12 4a8 8 0 1 0 0 16 8 8 0 0 0 0-16zM2 12C2 6.477 6.477 2 12 2s10 4.477 10 10-4.477 10-10 10S2 17.523 2 12zm6-2a1 1 0 0 1 1-1h.01a1 1 0 0 1 0 2H9a1 1 0 0 1-1-1zm6 0a1 1 0 0 1 1-1h.01a1 1 0 1 1 0 2H15a1 1 0 0 1-1-1zm-2 5.2a2.5 2.5 0 0 0-1.786.75 1 1 0 0 1-1.428-1.4 4.5 4.5 0 0 1 6.428 0 1 1 0 0 1-1.428 1.4A2.5 2.5 0 0 0 12 15.2z"
  />
</svg>
